static/img/kroki/4cdff9b88b46ea93ffd721634154af60.svg

<?xml version="1.0" encoding="us-ascii" standalone="no"?><svg xmlns="http://www.w3.org/2000/svg" xmlns:xlink="http://www.w3.org/1999/xlink" contentStyleType="text/css" height="741px" preserveAspectRatio="none" style="width:417px;height:741px;" version="1.1" viewBox="0 0 417 741" width="417px" zoomAndPan="magnify"><defs/><g><!--class azure_compute_ssh_public_key--><g id="elem_azure_compute_ssh_public_key"><rect codeLine="23" fill="#3D176E" height="74.0859" id="azure_compute_ssh_public_key" rx="2.5" ry="2.5" style="stroke:#000D19;stroke-width:0.5;" width="303" x="41.5" y="660.14"/><ellipse cx="56.5" cy="680.0345" fill="#ADD1B2" rx="11" ry="11" style="stroke:#181818;stroke-width:1.0;"/><path d="M59.4688,685.6752 Q58.8906,685.972 58.25,686.1127 Q57.6094,686.2689 56.9063,686.2689 Q54.4063,686.2689 53.0781,684.6283 Q51.7656,682.972 51.7656,679.847 Q51.7656,676.722 53.0781,675.0658 Q54.4063,673.4095 56.9063,673.4095 Q57.6094,673.4095 58.25,673.5658 Q58.9063,673.722 59.4688,674.0189 L59.4688,676.7377 Q58.8438,676.1595 58.25,675.8939 Q57.6563,675.6127 57.0313,675.6127 Q55.6875,675.6127 55,676.6908 Q54.3125,677.7533 54.3125,679.847 Q54.3125,681.9408 55,683.0189 Q55.6875,684.0814 57.0313,684.0814 Q57.6563,684.0814 58.25,683.8158 Q58.8438,683.5345 59.4688,682.9564 L59.4688,685.6752 Z " fill="#000000"/><text fill="#D9B8FF" font-family="Helvetica" font-size="17" lengthAdjust="spacing" textLength="261" x="75.5" y="685.9198">azure_compute_ssh_public_key</text><line style="stroke:#000D19;stroke-width:0.5;" x1="42.5" x2="343.5" y1="699.9291" y2="699.9291"/><text fill="#D9B8FF" font-family="sans-serif" font-size="14" font-weight="bold" lengthAdjust="spacing" textLength="83" x="52.5" y="721.9242">properties</text><text fill="#D9B8FF" font-family="sans-serif" font-size="14" lengthAdjust="spacing" textLength="48" x="135.5" y="721.9242">: string</text></g><!--class keypair--><g id="elem_keypair"><rect codeLine="26" fill="#3D176E" height="74.0859" id="keypair" rx="2.5" ry="2.5" style="stroke:#000D19;stroke-width:0.5;" width="154" x="7" y="451.91"/><ellipse cx="44.5" cy="471.8045" fill="#ADD1B2" rx="11" ry="11" style="stroke:#181818;stroke-width:1.0;"/><path d="M47.4688,477.4452 Q46.8906,477.742 46.25,477.8827 Q45.6094,478.0389 44.9063,478.0389 Q42.4063,478.0389 41.0781,476.3983 Q39.7656,474.742 39.7656,471.617 Q39.7656,468.492 41.0781,466.8358 Q42.4063,465.1795 44.9063,465.1795 Q45.6094,465.1795 46.25,465.3358 Q46.9063,465.492 47.4688,465.7889 L47.4688,468.5077 Q46.8438,467.9295 46.25,467.6639 Q45.6563,467.3827 45.0313,467.3827 Q43.6875,467.3827 43,468.4608 Q42.3125,469.5233 42.3125,471.617 Q42.3125,473.7108 43,474.7889 Q43.6875,475.8514 45.0313,475.8514 Q45.6563,475.8514 46.25,475.5858 Q46.8438,475.3045 47.4688,474.7264 L47.4688,477.4452 Z " fill="#000000"/><text fill="#D9B8FF" font-family="Helvetica" font-size="17" lengthAdjust="spacing" textLength="62" x="68.5" y="477.6898">keypair</text><line style="stroke:#000D19;stroke-width:0.5;" x1="8" x2="160" y1="491.6991" y2="491.6991"/><text fill="#D9B8FF" font-family="sans-serif" font-size="14" font-weight="bold" lengthAdjust="spacing" textLength="84" x="18" y="513.6942">fingerprint</text><text fill="#D9B8FF" font-family="sans-serif" font-size="14" lengthAdjust="spacing" textLength="48" x="102" y="513.6942">: string</text></g><!--class microsoft_resource--><g id="elem_microsoft_resource"><rect codeLine="29" fill="#3D176E" height="100.3828" id="microsoft_resource" rx="2.5" ry="2.5" style="stroke:#000D19;stroke-width:0.5;" width="214" x="196" y="438.76"/><ellipse cx="217.3" cy="458.6545" fill="#ADD1B2" rx="11" ry="11" style="stroke:#181818;stroke-width:1.0;"/><path d="M220.2688,464.2952 Q219.6906,464.592 219.05,464.7327 Q218.4094,464.8889 217.7063,464.8889 Q215.2063,464.8889 213.8781,463.2483 Q212.5656,461.592 212.5656,458.467 Q212.5656,455.342 213.8781,453.6858 Q215.2063,452.0295 217.7063,452.0295 Q218.4094,452.0295 219.05,452.1858 Q219.7063,452.342 220.2688,452.6389 L220.2688,455.3577 Q219.6438,454.7795 219.05,454.5139 Q218.4563,454.2327 217.8313,454.2327 Q216.4875,454.2327 215.8,455.3108 Q215.1125,456.3733 215.1125,458.467 Q215.1125,460.5608 215.8,461.6389 Q216.4875,462.7014 217.8313,462.7014 Q218.4563,462.7014 219.05,462.4358 Q219.6438,462.1545 220.2688,461.5764 L220.2688,464.2952 Z " fill="#000000"/><text fill="#D9B8FF" font-family="Helvetica" font-size="17" lengthAdjust="spacing" textLength="158" x="237.7" y="464.5398">microsoft_resource</text><line style="stroke:#000D19;stroke-width:0.5;" x1="197" x2="409" y1="478.5491" y2="478.5491"/><text fill="#D9B8FF" font-family="sans-serif" font-size="14" font-weight="bold" lengthAdjust="spacing" textLength="35" x="207" y="500.5442">etag</text><text fill="#D9B8FF" font-family="sans-serif" font-size="14" lengthAdjust="spacing" textLength="48" x="242" y="500.5442">: string</text><text fill="#D9B8FF" font-family="sans-serif" font-size="14" font-weight="bold" lengthAdjust="spacing" textLength="144" x="207" y="526.8411">provisioning_state</text><text fill="#D9B8FF" font-family="sans-serif" font-size="14" lengthAdjust="spacing" textLength="48" x="351" y="526.8411">: string</text></g><!--class resource--><g id="elem_resource"><rect codeLine="33" fill="#3D176E" height="310.7578" id="resource" rx="2.5" ry="2.5" style="stroke:#000D19;stroke-width:0.5;" width="227" x="79.5" y="7"/><ellipse cx="148.25" cy="26.8945" fill="#ADD1B2" rx="11" ry="11" style="stroke:#181818;stroke-width:1.0;"/><path d="M151.2188,32.5352 Q150.6406,32.832 150,32.9727 Q149.3594,33.1289 148.6563,33.1289 Q146.1563,33.1289 144.8281,31.4883 Q143.5156,29.832 143.5156,26.707 Q143.5156,23.582 144.8281,21.9258 Q146.1563,20.2695 148.6563,20.2695 Q149.3594,20.2695 150,20.4258 Q150.6563,20.582 151.2188,20.8789 L151.2188,23.5977 Q150.5938,23.0195 150,22.7539 Q149.4063,22.4727 148.7813,22.4727 Q147.4375,22.4727 146.75,23.5508 Q146.0625,24.6133 146.0625,26.707 Q146.0625,28.8008 146.75,29.8789 Q147.4375,30.9414 148.7813,30.9414 Q149.4063,30.9414 150,30.6758 Q150.5938,30.3945 151.2188,29.8164 L151.2188,32.5352 Z " fill="#000000"/><text fill="#D9B8FF" font-family="Helvetica" font-size="17" lengthAdjust="spacing" textLength="71" x="173.75" y="32.7798">resource</text><line style="stroke:#000D19;stroke-width:0.5;" x1="80.5" x2="305.5" y1="46.7891" y2="46.7891"/><text fill="#D9B8FF" font-family="sans-serif" font-size="14" font-weight="bold" lengthAdjust="spacing" textLength="29" x="90.5" y="68.7842">age</text><text fill="#D9B8FF" font-family="sans-serif" font-size="14" lengthAdjust="spacing" textLength="66" x="119.5" y="68.7842">: duration</text><text fill="#D9B8FF" font-family="sans-serif" font-size="14" font-weight="bold" lengthAdjust="spacing" textLength="43" x="90.5" y="95.0811">atime</text><text fill="#D9B8FF" font-family="sans-serif" font-size="14" lengthAdjust="spacing" textLength="70" x="133.5" y="95.0811">: datetime</text><text fill="#D9B8FF" font-family="sans-serif" font-size="14" font-weight="bold" lengthAdjust="spacing" textLength="43" x="90.5" y="121.3779">ctime</text><text fill="#D9B8FF" font-family="sans-serif" font-size="14" lengthAdjust="spacing" textLength="70" x="133.5" y="121.3779">: datetime</text><text fill="#D9B8FF" font-family="sans-serif" font-size="14" font-weight="bold" lengthAdjust="spacing" textLength="14" x="90.5" y="147.6748">id</text><text fill="#D9B8FF" font-family="sans-serif" font-size="14" lengthAdjust="spacing" textLength="48" x="104.5" y="147.6748">: string</text><text fill="#D9B8FF" font-family="sans-serif" font-size="14" font-weight="bold" lengthAdjust="spacing" textLength="33" x="90.5" y="173.9717">kind</text><text fill="#D9B8FF" font-family="sans-serif" font-size="14" lengthAdjust="spacing" textLength="48" x="123.5" y="173.9717">: string</text><text fill="#D9B8FF" font-family="sans-serif" font-size="14" font-weight="bold" lengthAdjust="spacing" textLength="90" x="90.5" y="200.2686">last_access</text><text fill="#D9B8FF" font-family="sans-serif" font-size="14" lengthAdjust="spacing" textLength="66" x="180.5" y="200.2686">: duration</text><text fill="#D9B8FF" font-family="sans-serif" font-size="14" font-weight="bold" lengthAdjust="spacing" textLength="90" x="90.5" y="226.5654">last_update</text><text fill="#D9B8FF" font-family="sans-serif" font-size="14" lengthAdjust="spacing" textLength="66" x="180.5" y="226.5654">: duration</text><text fill="#D9B8FF" font-family="sans-serif" font-size="14" font-weight="bold" lengthAdjust="spacing" textLength="48" x="90.5" y="252.8623">mtime</text><text fill="#D9B8FF" font-family="sans-serif" font-size="14" lengthAdjust="spacing" textLength="70" x="138.5" y="252.8623">: datetime</text><text fill="#D9B8FF" font-family="sans-serif" font-size="14" font-weight="bold" lengthAdjust="spacing" textLength="43" x="90.5" y="279.1592">name</text><text fill="#D9B8FF" font-family="sans-serif" font-size="14" lengthAdjust="spacing" textLength="48" x="133.5" y="279.1592">: string</text><text fill="#D9B8FF" font-family="sans-serif" font-size="14" font-weight="bold" lengthAdjust="spacing" textLength="34" x="90.5" y="305.4561">tags</text><text fill="#D9B8FF" font-family="sans-serif" font-size="14" lengthAdjust="spacing" textLength="171" x="124.5" y="305.4561">: dictionary[string, string]</text></g><!--reverse link keypair to azure_compute_ssh_public_key--><g id="link_keypair_azure_compute_ssh_public_key"><path codeLine="45" d="M111.6503,542.2644 C131.5103,579.8444 153.91,622.23 173.77,659.81 " fill="none" id="keypair-backto-azure_compute_ssh_public_key" style="stroke:#FFAF37;stroke-width:2.0;"/><polygon fill="none" points="103.24,526.35,106.3455,545.0678,116.9551,539.4609,103.24,526.35" style="stroke:#FFAF37;stroke-width:2.0;"/></g><!--reverse link microsoft_resource to azure_compute_ssh_public_key--><g id="link_microsoft_resource_azure_compute_ssh_public_key"><path codeLine="46" d="M268.0396,555.4925 C248.2696,592.5625 230.18,626.49 212.37,659.88 " fill="none" id="microsoft_resource-backto-azure_compute_ssh_public_key" style="stroke:#FFAF37;stroke-width:2.0;"/><polygon fill="none" points="276.51,539.61,262.7455,552.669,273.3338,558.3159,276.51,539.61" style="stroke:#FFAF37;stroke-width:2.0;"/></g><!--reverse link resource to keypair--><g id="link_resource_keypair"><path codeLine="47" d="M135.3209,335.1239 C118.6009,384.9239 107.28,418.62 96.24,451.52 " fill="none" id="resource-backto-keypair" style="stroke:#FFAF37;stroke-width:2.0;"/><polygon fill="none" points="141.05,318.06,129.6329,333.2142,141.0089,337.0336,141.05,318.06" style="stroke:#FFAF37;stroke-width:2.0;"/></g><!--reverse link resource to microsoft_resource--><g id="link_resource_microsoft_resource"><path codeLine="48" d="M251.1988,335.1071 C265.9788,378.7071 275.22,405.98 286.21,438.43 " fill="none" id="resource-backto-microsoft_resource" style="stroke:#FFAF37;stroke-width:2.0;"/><polygon fill="none" points="245.42,318.06,245.5164,337.0334,256.8812,333.1809,245.42,318.06" style="stroke:#FFAF37;stroke-width:2.0;"/></g><!--SRC=[ZPDRQzj048NVzIiMycPYi1CInwKlgI6qBo4qVIj5Z7T7zcBjXTbHWjFsltTrILXTulHDclFDd3CZjDSA1HhFHs7GR9525WxQUY0mufR8FMzSwKYS5GKKbwkXUESiVmZSWq7n5SidP2rXIFpOQtcm68AuIAGl80yxSfLLxNWci25AQ3cXDYM4SCjCUbin9c7KUdjJ54DoEFJiKYrNrpZ272ca3bai5cgv7Y8VMftS-urur2yebkdHxXtZAER8eg5Efgo99EHeqLVztOmFe9IsEt6LrBwtcSWYzUgFUr3kkQOBA4Dg4nW97HyzRaPRuVf65Qj9-DjxS2RhqmbugGXpwOoFdpqFOP_xQbjgcH_mA7vdivadvv5OOvZDFiN15CDbVxlk27dGr815591yr7c2D5gI2wxWd32uYYGsJSYmI-Z6xaa7xMnypGC3uyImtWZODOYg23ZsrHNMfgt5zlevrkH4JQkUTRnUln2zE0SfunyrS6YKogikNgAO2HyB1dk3uzBjH2thDg3ZprOxxvXVSTNNstx-Cv_FJtwdREAu_z4rO3k_ONayE_i7]--></g></svg>

<svg xmlns="http://www.w3.org/2000/svg" width="417" height="741" viewBox="0 0 417 741"><rect width="303" height="74.086" x="41.5" y="660.14" fill="#3D176E" rx="2.5" ry="2.5" style="stroke:#000d19;stroke-width:.5"/><circle cx="56.5" cy="680.034" r="11" fill="#ADD1B2" style="stroke:#181818;stroke-width:1"/><path d="M59.469 685.675q-.578.297-1.219.438-.64.156-1.344.156-2.5 0-3.828-1.64-1.312-1.657-1.312-4.782t1.312-4.781q1.328-1.657 3.828-1.657.703 0 1.344.157.656.156 1.219.453v2.719q-.625-.579-1.219-.844-.594-.281-1.219-.281-1.343 0-2.031 1.078-.687 1.062-.687 3.156t.687 3.172q.688 1.062 2.031 1.062.625 0 1.219-.265.594-.282 1.219-.86z"/><text x="75.5" y="685.92" fill="#D9B8FF" font-family="Helvetica" font-size="17" textLength="261">azure_compute_ssh_public_key</text><path d="M42.5 699.929h301" style="stroke:#000d19;stroke-width:.5"/><text x="52.5" y="721.924" fill="#D9B8FF" font-family="sans-serif" font-size="14" font-weight="bold" textLength="83">properties</text><text x="135.5" y="721.924" fill="#D9B8FF" font-family="sans-serif" font-size="14" textLength="48">: string</text><rect width="154" height="74.086" x="7" y="451.91" fill="#3D176E" rx="2.5" ry="2.5" style="stroke:#000d19;stroke-width:.5"/><circle cx="44.5" cy="471.805" r="11" fill="#ADD1B2" style="stroke:#181818;stroke-width:1"/><path d="M47.469 477.445q-.578.297-1.219.438-.64.156-1.344.156-2.5 0-3.828-1.64-1.312-1.657-1.312-4.782t1.312-4.781q1.328-1.656 3.828-1.656.703 0 1.344.156.656.156 1.219.453v2.719q-.625-.578-1.219-.844-.594-.281-1.219-.281-1.343 0-2.031 1.078-.687 1.062-.687 3.156t.687 3.172q.688 1.062 2.031 1.062.625 0 1.219-.265.594-.281 1.219-.86z"/><text x="68.5" y="477.69" fill="#D9B8FF" font-family="Helvetica" font-size="17" textLength="62">keypair</text><path d="M8 491.699h152" style="stroke:#000d19;stroke-width:.5"/><text x="18" y="513.694" fill="#D9B8FF" font-family="sans-serif" font-size="14" font-weight="bold" textLength="84">fingerprint</text><text x="102" y="513.694" fill="#D9B8FF" font-family="sans-serif" font-size="14" textLength="48">: string</text><rect width="214" height="100.383" x="196" y="438.76" fill="#3D176E" rx="2.5" ry="2.5" style="stroke:#000d19;stroke-width:.5"/><circle cx="217.3" cy="458.654" r="11" fill="#ADD1B2" style="stroke:#181818;stroke-width:1"/><path d="M220.269 464.295q-.578.297-1.219.438-.64.156-1.344.156-2.5 0-3.828-1.64-1.312-1.657-1.312-4.782t1.312-4.781q1.328-1.656 3.828-1.656.703 0 1.344.156.656.156 1.219.453v2.719q-.625-.579-1.219-.844-.594-.281-1.219-.281-1.343 0-2.031 1.078-.687 1.062-.687 3.156t.687 3.172q.688 1.062 2.031 1.062.625 0 1.219-.265.594-.281 1.219-.86z"/><text x="237.7" y="464.54" fill="#D9B8FF" font-family="Helvetica" font-size="17" textLength="158">microsoft_resource</text><path d="M197 478.549h212" style="stroke:#000d19;stroke-width:.5"/><text x="207" y="500.544" fill="#D9B8FF" font-family="sans-serif" font-size="14" font-weight="bold" textLength="35">etag</text><text x="242" y="500.544" fill="#D9B8FF" font-family="sans-serif" font-size="14" textLength="48">: string</text><text x="207" y="526.841" fill="#D9B8FF" font-family="sans-serif" font-size="14" font-weight="bold" textLength="144">provisioning_state</text><text x="351" y="526.841" fill="#D9B8FF" font-family="sans-serif" font-size="14" textLength="48">: string</text><rect width="227" height="310.758" x="79.5" y="7" fill="#3D176E" rx="2.5" ry="2.5" style="stroke:#000d19;stroke-width:.5"/><circle cx="148.25" cy="26.895" r="11" fill="#ADD1B2" style="stroke:#181818;stroke-width:1"/><path d="M151.219 32.535q-.578.297-1.219.438-.64.156-1.344.156-2.5 0-3.828-1.64-1.312-1.657-1.312-4.782t1.312-4.781q1.328-1.656 3.828-1.656.703 0 1.344.156.656.156 1.219.453v2.719q-.625-.578-1.219-.844-.594-.281-1.219-.281-1.344 0-2.031 1.078-.687 1.062-.687 3.156t.687 3.172q.688 1.062 2.031 1.062.625 0 1.219-.265.594-.281 1.219-.86z"/><text x="173.75" y="32.78" fill="#D9B8FF" font-family="Helvetica" font-size="17" textLength="71">resource</text><path d="M80.5 46.789h225" style="stroke:#000d19;stroke-width:.5"/><text x="90.5" y="68.784" fill="#D9B8FF" font-family="sans-serif" font-size="14" font-weight="bold" textLength="29">age</text><text x="119.5" y="68.784" fill="#D9B8FF" font-family="sans-serif" font-size="14" textLength="66">: duration</text><text x="90.5" y="95.081" fill="#D9B8FF" font-family="sans-serif" font-size="14" font-weight="bold" textLength="43">atime</text><text x="133.5" y="95.081" fill="#D9B8FF" font-family="sans-serif" font-size="14" textLength="70">: datetime</text><text x="90.5" y="121.378" fill="#D9B8FF" font-family="sans-serif" font-size="14" font-weight="bold" textLength="43">ctime</text><text x="133.5" y="121.378" fill="#D9B8FF" font-family="sans-serif" font-size="14" textLength="70">: datetime</text><text x="90.5" y="147.675" fill="#D9B8FF" font-family="sans-serif" font-size="14" font-weight="bold" textLength="14">id</text><text x="104.5" y="147.675" fill="#D9B8FF" font-family="sans-serif" font-size="14" textLength="48">: string</text><text x="90.5" y="173.972" fill="#D9B8FF" font-family="sans-serif" font-size="14" font-weight="bold" textLength="33">kind</text><text x="123.5" y="173.972" fill="#D9B8FF" font-family="sans-serif" font-size="14" textLength="48">: string</text><text x="90.5" y="200.269" fill="#D9B8FF" font-family="sans-serif" font-size="14" font-weight="bold" textLength="90">last_access</text><text x="180.5" y="200.269" fill="#D9B8FF" font-family="sans-serif" font-size="14" textLength="66">: duration</text><text x="90.5" y="226.565" fill="#D9B8FF" font-family="sans-serif" font-size="14" font-weight="bold" textLength="90">last_update</text><text x="180.5" y="226.565" fill="#D9B8FF" font-family="sans-serif" font-size="14" textLength="66">: duration</text><text x="90.5" y="252.862" fill="#D9B8FF" font-family="sans-serif" font-size="14" font-weight="bold" textLength="48">mtime</text><text x="138.5" y="252.862" fill="#D9B8FF" font-family="sans-serif" font-size="14" textLength="70">: datetime</text><text x="90.5" y="279.159" fill="#D9B8FF" font-family="sans-serif" font-size="14" font-weight="bold" textLength="43">name</text><text x="133.5" y="279.159" fill="#D9B8FF" font-family="sans-serif" font-size="14" textLength="48">: string</text><text x="90.5" y="305.456" fill="#D9B8FF" font-family="sans-serif" font-size="14" font-weight="bold" textLength="34">tags</text><text x="124.5" y="305.456" fill="#D9B8FF" font-family="sans-serif" font-size="14" textLength="171">: dictionary[string, string]</text><path fill="none" d="m111.65 542.264 62.12 117.546m-70.53-133.46 3.106 18.718 10.61-5.607zm164.8 29.143c-19.77 37.07-37.86 70.997-55.67 104.387m64.14-120.27-13.764 13.059 10.588 5.647zM135.32 335.124c-16.72 49.8-28.04 83.496-39.08 116.396m44.81-133.46-11.417 15.154 11.376 3.82zm110.149 17.047c14.78 43.6 24.021 70.873 35.011 103.323m-40.79-120.37.096 18.973 11.365-3.852z" style="stroke:#ffaf37;stroke-width:2"/></svg>
